X:1074
M:3/4
L:1/4
Q:1/4=104
K:E Minor
(G/A/) ({B}A2)({Bc})|    B3 |Bef|(gf)e|(g/a/) {b}a2    |b3|bag|
d2 g| a     ({g}f2)      |({f}g3)|bag|(ag)f|(gf)e|(de)f|B3 |

